Catalina-dark/actions/22/depth8to16.svg

<svg xmlns="http://www.w3.org/2000/svg" viewBox="0 0 22 22">
  <defs id="defs3051">
    <style type="text/css" id="current-color-scheme">
      .ColorScheme-Text {
        color:#f2f2f2
      }
      </style>
  </defs>
  <g
     inkscape:label="Capa 1"
     inkscape:groupmode="layer"
     id="layer1"
     transform="translate(-544.57141,-742.93359)">
    <g
       id="g4212"
       transform="translate(-0.52358024,-0.03300128)">
      <g
         id="g4221"
         transform="matrix(0.94261801,0,0,0.94261801,31.674381,43.216973)">
        <g
           style="font-style:normal;font-weight:normal;font-size:7.5px;line-height:125%;font-family:sans-serif;letter-spacing:0px;word-spacing:0px;fill:#da4453;fill-opacity:1;stroke:none;stroke-width:1px;stroke-linecap:butt;stroke-linejoin:miter;stroke-opacity:1"
           id="text4146"
           transform="matrix(1.3035382,0,0,1.3035382,-139.97056,-236.92576)">
          <path
             style="font-style:normal;font-variant:normal;font-weight:normal;font-stretch:normal;font-family:'Product Sans';-inkscape-font-specification:'Product Sans';fill:#da4453;fill-opacity:1"
             d="M 5.3945312 3 C 4.8354552 3 4.3741966 3.1715782 4.0117188 3.515625 C 3.6492409 3.8535281 3.46875 4.2771829 3.46875 4.7871094 C 3.46875 5.0451445 3.5456264 5.2955522 3.6992188 5.5351562 C 3.8528111 5.7686166 4.0494585 5.9616421 4.2890625 6.1152344 L 4.2890625 6.1523438 C 3.9818779 6.3059361 3.7334232 6.5167869 3.5429688 6.7871094 C 3.3525143 7.0512882 3.2558594 7.3587939 3.2558594 7.7089844 C 3.2558594 8.2434857 3.4633726 8.6922096 3.875 9.0546875 C 4.2866274 9.4171654 4.7924493 9.5976562 5.3945312 9.5976562 C 5.9966132 9.5976562 6.5043882 9.4171654 6.9160156 9.0546875 C 7.3276431 8.6922096 7.5332031 8.2434857 7.5332031 7.7089844 C 7.5332031 7.3587939 7.4365482 7.0512882 7.2460938 6.7871094 C 7.0556393 6.5167869 6.8071846 6.3059361 6.5 6.1523438 L 6.5 6.1152344 C 6.739604 5.9616421 6.9362514 5.7686166 7.0898438 5.5351562 C 7.2434361 5.2955522 7.3203125 5.0451445 7.3203125 4.7871094 C 7.3203125 4.2771829 7.1398216 3.8535281 6.7773438 3.515625 C 6.4148659 3.1715782 5.9536073 3 5.3945312 3 z M 5.3945312 3.8105469 C 5.7017159 3.8105469 5.9537925 3.896336 6.1503906 4.0683594 C 6.3531325 4.2403828 6.4550781 4.474634 6.4550781 4.7695312 C 6.4550781 5.0644285 6.3531325 5.3039705 6.1503906 5.4882812 C 5.9537925 5.6664483 5.7017159 5.7558594 5.3945312 5.7558594 C 5.0873466 5.7558594 4.8316481 5.6664483 4.6289062 5.4882812 C 4.4323081 5.3039705 4.3339844 5.0644285 4.3339844 4.7695312 C 4.3339844 4.474634 4.4323081 4.2403828 4.6289062 4.0683594 C 4.8316481 3.896336 5.0873466 3.8105469 5.3945312 3.8105469 z M 5.3945312 6.5488281 C 5.7508654 6.5488281 6.0511273 6.6524426 6.296875 6.8613281 C 6.5426227 7.0702137 6.6660156 7.3364937 6.6660156 7.6621094 C 6.6660156 7.9938688 6.5426227 8.2657238 6.296875 8.4746094 C 6.0511273 8.6834949 5.7508654 8.7871094 5.3945312 8.7871094 C 5.0381971 8.7871094 4.7379352 8.6834949 4.4921875 8.4746094 C 4.2464398 8.2657238 4.1230469 7.9938688 4.1230469 7.6621094 C 4.1230469 7.3364937 4.2464398 7.0702137 4.4921875 6.8613281 C 4.7379352 6.6524426 5.0381971 6.5488281 5.3945312 6.5488281 z "
             transform="matrix(0.81384276,0,0,0.81384276,525.22106,751.24206)"
             id="path4169" />
        </g>
        <g
           style="font-style:normal;font-weight:normal;font-size:7.5px;line-height:125%;font-family:sans-serif;letter-spacing:0px;word-spacing:0px;fill:#1d99f3;fill-opacity:1;stroke:none;stroke-width:1px;stroke-linecap:butt;stroke-linejoin:miter;stroke-opacity:1"
           id="text4146-7"
           transform="matrix(1.3035382,0,0,1.3035382,-141.40199,-228.27249)">
          <path
             style="font-style:normal;font-variant:normal;font-weight:normal;font-stretch:normal;font-family:'Product Sans';-inkscape-font-specification:'Product Sans';fill:#1d99f3;fill-opacity:1"
             d="M 16.873047 12.402344 L 15.158203 14.935547 C 14.666708 15.654359 14.421875 16.305021 14.421875 16.888672 C 14.421875 17.441604 14.623813 17.933223 15.029297 18.363281 C 15.440924 18.787196 15.961234 19 16.587891 19 C 17.171541 19 17.673741 18.787196 18.097656 18.363281 C 18.527715 17.939366 18.744141 17.447748 18.744141 16.888672 C 18.744141 16.317308 18.536627 15.832934 18.125 15.433594 C 17.713373 15.02811 17.26298 14.826172 16.771484 14.826172 C 16.458156 14.826172 16.223905 14.874357 16.070312 14.972656 L 16.052734 14.955078 L 17.554688 12.871094 L 16.873047 12.402344 z M 12.673828 12.548828 L 10.822266 13.416016 L 11.144531 14.134766 L 12.369141 13.599609 L 12.369141 18.853516 L 13.216797 18.853516 L 13.216797 12.548828 L 12.673828 12.548828 z M 16.587891 15.617188 C 16.944225 15.617188 17.248109 15.744202 17.5 15.996094 C 17.758035 16.241841 17.886719 16.542103 17.886719 16.898438 C 17.886719 17.260915 17.758035 17.564799 17.5 17.810547 C 17.248109 18.056295 16.944225 18.179688 16.587891 18.179688 C 16.225413 18.179688 15.914285 18.056295 15.65625 17.810547 C 15.404359 17.564799 15.279297 17.260915 15.279297 16.898438 C 15.279297 16.542103 15.407981 16.241841 15.666016 15.996094 C 15.924051 15.744202 16.231556 15.617188 16.587891 15.617188 z "
             transform="matrix(0.81384276,0,0,0.81384276,526.31917,744.60377)"
             id="path4172" />
        </g>
        <path
           style="fill:currentColor;fill-opacity:1;stroke:none"
         class="ColorScheme-Text"
           d="M 10.685547 3.9570312 C 10.071079 4.0439232 9.8157973 4.8267721 10.576172 5.1152344 C 11.974904 5.2933232 13.281187 6.0839339 14.066406 7.3847656 C 14.295321 7.7639809 14.460379 8.1639216 14.574219 8.5703125 L 13.962891 8.5761719 C 13.64471 8.5789997 13.528381 8.8048261 13.701172 9.0820312 L 14.890625 10.986328 C 15.063784 11.264033 15.329182 11.264005 15.484375 10.986328 L 16.564453 9.0546875 C 16.719759 8.7768791 16.587787 8.5538788 16.269531 8.5566406 L 16.269531 8.5546875 L 15.085938 8.5664062 L 15.800781 8.5507812 C 15.663819 7.9371652 15.432862 7.3358354 15.089844 6.7675781 C 14.154229 5.2176031 12.624534 4.2445562 10.96875 3.9648438 C 10.868246 3.9454187 10.773328 3.9446181 10.685547 3.9570312 z M 5.1816406 10.779297 C 5.0739654 10.779498 4.9682213 10.849443 4.890625 10.988281 L 3.8105469 12.919922 C 3.6552411 13.19773 3.7872126 13.420731 4.1054688 13.417969 L 4.1054688 13.419922 L 5.2890625 13.408203 L 4.5742188 13.421875 C 4.7111811 14.035491 4.9440907 14.638774 5.2871094 15.207031 C 6.2227237 16.757006 7.7504661 17.7281 9.40625 18.007812 C 10.210284 18.163213 10.667828 17.189046 9.7988281 16.859375 C 8.4000961 16.681286 7.0938134 15.890675 6.3085938 14.589844 C 6.079679 14.210629 5.9146212 13.810688 5.8007812 13.404297 L 6.4121094 13.398438 C 6.7302901 13.39561 6.8466194 13.169783 6.6738281 12.892578 L 5.484375 10.988281 C 5.3977955 10.849429 5.2893159 10.779095 5.1816406 10.779297 z "
           transform="matrix(1.0608751,0,0,1.0608751,544.67515,742.34696)"
           id="path8-3" />
      </g>
    </g>
  </g>
</svg>

<svg xmlns="http://www.w3.org/2000/svg" viewBox="0 0 22 22">
<defs>
<style id="current-color-scheme" type="text/css">.ColorScheme-Text {
        color:#dedede
      }</style>
</defs>
<g>
<g>
<g transform="matrix(0.94262 0 0 0.94262 -513.42 -699.746)">
<g transform="matrix(1.3035 0 0 1.3035 -139.97 -236.93)" fill="#da4453" stroke-width="1px">
<path transform="matrix(.81384 0 0 .81384 525.22 751.24)" d="m5.3945 3c-0.55908 0-1.0203 0.17158-1.3828 0.51562-0.36248 0.3379-0.54297 0.76156-0.54297 1.2715 0 0.25804 0.076876 0.50844 0.23047 0.74805 0.15359 0.23346 0.35024 0.42649 0.58984 0.58008v0.037109c-0.30718 0.15359-0.55564 0.36444-0.74609 0.63477-0.19045 0.26418-0.28711 0.57168-0.28711 0.92188 0 0.5345 0.20751 0.98323 0.61914 1.3457s0.91745 0.54297 1.5195 0.54297c0.60208 0 1.1099-0.18049 1.5215-0.54297 0.41163-0.36248 0.61719-0.8112 0.61719-1.3457 0-0.35019-0.096655-0.6577-0.28711-0.92188-0.19045-0.27032-0.43891-0.48117-0.74609-0.63477v-0.037109c0.2396-0.15359 0.43625-0.34662 0.58984-0.58008 0.15359-0.2396 0.23047-0.49001 0.23047-0.74805 0-0.50993-0.18049-0.93358-0.54297-1.2715-0.36248-0.34405-0.82374-0.51562-1.3828-0.51562zm0 0.81055c0.30718 0 0.55926 0.085789 0.75586 0.25781 0.20274 0.17202 0.30469 0.40627 0.30469 0.70117 0 0.2949-0.10195 0.53444-0.30469 0.71875-0.1966 0.17817-0.44867 0.26758-0.75586 0.26758-0.30718 0-0.56288-0.089411-0.76562-0.26758-0.1966-0.18431-0.29492-0.42385-0.29492-0.71875 0-0.2949 0.098324-0.52915 0.29492-0.70117 0.20274-0.17202 0.45844-0.25781 0.76562-0.25781zm0 2.7383c0.35633 0 0.6566 0.10361 0.90234 0.3125 0.24575 0.20889 0.36914 0.47517 0.36914 0.80078 0 0.33176-0.12339 0.60361-0.36914 0.8125-0.24575 0.20889-0.54601 0.3125-0.90234 0.3125-0.35633 0-0.6566-0.10361-0.90234-0.3125-0.24575-0.20889-0.36914-0.48074-0.36914-0.8125 0-0.32562 0.12339-0.5919 0.36914-0.80078 0.24575-0.20889 0.54601-0.3125 0.90234-0.3125z" fill="#da4453" />
</g>
<g transform="matrix(1.3035 0 0 1.3035 -141.4 -228.27)" fill="#1d99f3" stroke-width="1px">
<path transform="matrix(.81384 0 0 .81384 526.32 744.6)" d="m16.873 12.402-1.7148 2.5332c-0.4915 0.71881-0.73633 1.3695-0.73633 1.9531 0 0.55293 0.20194 1.0446 0.60742 1.4746 0.41163 0.42392 0.93194 0.63672 1.5586 0.63672 0.58365 0 1.0858-0.2128 1.5098-0.63672 0.43006-0.42392 0.64648-0.91553 0.64648-1.4746 0-0.57136-0.20751-1.0557-0.61914-1.4551-0.41163-0.40548-0.86202-0.60742-1.3535-0.60742-0.31333 0-0.54758 0.048185-0.70117 0.14648l-0.017578-0.017578 1.502-2.084-0.68164-0.46875zm-4.1992 0.14648-1.8516 0.86719 0.32226 0.71875 1.2246-0.53516v5.2539h0.84766v-6.3047h-0.54297zm3.9141 3.0684c0.35633 0 0.66022 0.12701 0.91211 0.37891 0.25804 0.24575 0.38672 0.54601 0.38672 0.90234 0 0.36248-0.12868 0.66636-0.38672 0.91211-0.25189 0.24575-0.55578 0.36914-0.91211 0.36914-0.36248 0-0.67361-0.12339-0.93164-0.36914-0.25189-0.24575-0.37695-0.54963-0.37695-0.91211 0-0.35634 0.12868-0.6566 0.38672-0.90234 0.25804-0.25189 0.56554-0.37891 0.92188-0.37891z" fill="#1d99f3" />
</g>
<path class="ColorScheme-Text" transform="matrix(1.0609 0 0 1.0609 544.68 742.35)" d="m10.686 3.957c-0.61447 0.086892-0.86975 0.86974-0.10938 1.1582 1.3987 0.17809 2.705 0.9687 3.4902 2.2695 0.22892 0.37922 0.39397 0.77916 0.50781 1.1855l-0.61133 0.0058594c-0.31818 0.0028278-0.43451 0.22865-0.26172 0.50586l1.1895 1.9043c0.17316 0.2777 0.43856 0.27768 0.59375 0l1.0801-1.9316c0.15531-0.27781 0.023334-0.50081-0.29492-0.49805v-0.0019531l-1.1836 0.011719 0.71484-0.015625c-0.13696-0.61362-0.36792-1.2149-0.71094-1.7832-0.93562-1.55-2.4653-2.523-4.1211-2.8027-0.1005-0.019425-0.19542-0.020226-0.2832-0.0078126zm-5.5039 6.8223c-0.10768 2.01e-4 -0.21342 0.070146-0.29102 0.20898l-1.0801 1.9316c-0.15531 0.27781-0.023334 0.50081 0.29492 0.49805v0.001953l1.1836-0.011719-0.71484 0.013672c0.13696 0.61362 0.36987 1.2169 0.71289 1.7852 0.93561 1.55 2.4634 2.5211 4.1191 2.8008 0.80403 0.1554 1.2616-0.81877 0.39258-1.1484-1.3987-0.17809-2.705-0.9687-3.4902-2.2695-0.22891-0.37922-0.39397-0.77916-0.50781-1.1855l0.61133-0.005859c0.31818-0.002828 0.43451-0.22866 0.26172-0.50586l-1.1895-1.9043c-0.08658-0.13885-0.19506-0.20919-0.30273-0.20898z" fill="currentColor" />
</g>
</g>
</g>
</svg>
